X:1
T:Title
%%score { ( 1 3 ) | ( 2 4 ) }
L:1/8
Q:1/4=80
M:4/4
K:Eb
V:1 treble nm="Grand Piano"
V:3 treble 
V:2 bass 
V:4 bass 
V:1
 F F2 A [=EG]4 | [=Ec] [Ec]2 [Ec] z2 B,2 | F F2 A [=EG]3 F | F>F CC =E/D/E F2 |] %4
w: Thoro~Harris * * *||||
V:2
 [F,A,C] [F,A,C]2 [F,CF] [C,C]4 | z4 C2 z2 | [F,A,] [F,A,C]2 [F,CF] [C,B,]3 [F,A,] | %3
 [F,A,C]>[F,A,C] [F,A,][F,A,] [G,B,C]/[G,B,C]/[C,B,C] [F,A,C]2 |] %4
V:3
 x8 | z4 [=EG]4 | x8 | x8 |] %4
V:4
 x8 | [C,G,] [C,G,]2 [C,G,] C,4 | x8 | x8 |] %4

